assets/Person wearing turban/Default/Flat/person_wearing_turban_flat_default.svg

<svg width="32" height="32" viewBox="0 0 32 32" fill="none" xmlns="http://www.w3.org/2000/svg">
<path d="M10 18C10 19.6569 8.65685 21 7 21C5.34315 21 4 19.6569 4 18C4 16.3431 5.34315 15 7 15C8.65685 15 10 16.3431 10 18Z" fill="#FDBB11"/>
<path d="M28 18C28 19.6569 26.6569 21 25 21C23.3431 21 22 19.6569 22 18C22 16.3431 23.3431 15 25 15C26.6569 15 28 16.3431 28 18Z" fill="#FDBB11"/>
<path d="M18.068 4H13.9233C9.26925 4 5.77373 7.92472 6.30305 12.7978L7.00216 23.5933C7.48154 27.2658 10.5876 30 14.2429 30H16.0006H17.7584C21.4236 30 24.5197 27.2658 25.009 23.5933L25.6782 12.7978C26.3074 8.14668 22.722 4 18.068 4Z" fill="#FFC83D"/>
<path d="M22.5334 14.4557C22.835 14.064 22.8348 14.0639 22.8346 14.0638C23.0534 14.2322 23.0946 14.5464 22.9261 14.7652C22.7581 14.9836 22.4451 15.0247 22.2264 14.8575L22.2211 14.8536C22.2151 14.8493 22.2046 14.8417 22.1897 14.8315C22.1597 14.811 22.1123 14.7799 22.0486 14.742C21.9208 14.6662 21.7293 14.5644 21.4838 14.4683C20.9926 14.2758 20.2937 14.1085 19.4584 14.2068C19.1841 14.2391 18.9356 14.0429 18.9034 13.7686C18.8711 13.4944 19.0673 13.2459 19.3415 13.2136C20.3762 13.0919 21.2423 13.2996 21.8486 13.5372C22.1519 13.656 22.3922 13.783 22.5592 13.8822C22.6428 13.9318 22.7084 13.9747 22.7547 14.0064C22.7778 14.0223 22.7962 14.0354 22.8096 14.0452L22.826 14.0573L22.8314 14.0613L22.8334 14.0629L22.8346 14.0638L22.5334 14.4557Z" fill="#D37034"/>
<path d="M9.32502 14.064C9.10621 14.2325 9.06538 14.5464 9.23383 14.7652C9.40197 14.9836 9.71504 15.0247 9.93379 14.8574L9.93892 14.8536C9.94486 14.8493 9.95538 14.8417 9.97032 14.8315C10.0002 14.811 10.0477 14.7799 10.1114 14.742C10.2391 14.6662 10.4307 14.5644 10.6762 14.4683C11.1673 14.2758 11.8663 14.1085 12.7016 14.2068C12.9759 14.2391 13.2243 14.0429 13.2566 13.7686C13.2889 13.4944 13.0927 13.2459 12.8185 13.2136C11.7838 13.0919 10.9177 13.2996 10.3114 13.5372C10.0081 13.656 9.7678 13.783 9.60082 13.8822C9.51722 13.9318 9.45162 13.9747 9.40532 14.0064C9.38216 14.0223 9.36378 14.0354 9.35036 14.0452L9.33393 14.0573L9.32853 14.0613L9.32654 14.0629L9.32502 14.064Z" fill="#D37034"/>
<path d="M9.04003 17.4099C9.33003 16.2699 10.36 15.4199 11.59 15.4199C12.87 15.4199 13.93 16.3399 14.17 17.5399C14.22 17.8099 14.01 18.0499 13.74 18.0499H9.55003C9.21003 18.0499 8.96003 17.7399 9.04003 17.4099Z" fill="white"/>
<path d="M23.14 17.4099C22.85 16.2699 21.82 15.4199 20.59 15.4199C19.31 15.4199 18.25 16.3399 18.01 17.5399C17.96 17.8099 18.17 18.0499 18.44 18.0499H22.63C22.97 18.0499 23.22 17.7399 23.14 17.4099Z" fill="white"/>
<path d="M10.3 17.6097C10.3 16.6797 11.05 15.9297 11.98 15.9297C12.91 15.9297 13.66 16.6797 13.66 17.6097C13.66 17.7697 13.64 17.9197 13.6 18.0597H10.36C10.32 17.9097 10.3 17.7597 10.3 17.6097Z" fill="#7D4533"/>
<path d="M21.88 17.6097C21.88 16.6797 21.13 15.9297 20.2 15.9297C19.27 15.9297 18.52 16.6797 18.52 17.6097C18.52 17.7697 18.54 17.9197 18.58 18.0597H21.82C21.86 17.9097 21.88 17.7597 21.88 17.6097Z" fill="#7D4533"/>
<path d="M11.98 16.6499C12.51 16.6499 12.94 17.0799 12.94 17.6099C12.94 17.7699 12.9 17.9199 12.83 18.0599H11.13C11.06 17.9199 11.02 17.7699 11.02 17.6099C11.02 17.0799 11.45 16.6499 11.98 16.6499Z" fill="black"/>
<path d="M20.2 16.6499C19.67 16.6499 19.24 17.0799 19.24 17.6099C19.24 17.7699 19.28 17.9199 19.35 18.0599H21.05C21.12 17.9199 21.16 17.7699 21.16 17.6099C21.16 17.0799 20.73 16.6499 20.2 16.6499Z" fill="black"/>
<path d="M11.7 16.9499C11.7 17.1156 11.5657 17.2499 11.4 17.2499C11.2343 17.2499 11.1 17.1156 11.1 16.9499C11.1 16.7842 11.2343 16.6499 11.4 16.6499C11.5657 16.6499 11.7 16.7842 11.7 16.9499Z" fill="white"/>
<path d="M19.98 16.9499C19.98 17.1156 19.8457 17.2499 19.68 17.2499C19.5143 17.2499 19.38 17.1156 19.38 16.9499C19.38 16.7842 19.5143 16.6499 19.68 16.6499C19.8457 16.6499 19.98 16.7842 19.98 16.9499Z" fill="white"/>
<path d="M15.9982 23.8886C15.0484 23.8886 14.1652 23.6648 13.4149 23.2825C13.1584 23.152 12.8925 23.4411 13.0445 23.6742C13.6713 24.6253 14.7635 25.25 15.9982 25.25C17.2328 25.25 18.325 24.6253 18.9519 23.6742C19.1133 23.4411 18.8379 23.152 18.5815 23.2825C17.8312 23.6648 16.9479 23.8886 15.9982 23.8886Z" fill="#990839"/>
<path d="M15.2891 17.5175L14.2969 20.6375C14.0923 21.2775 14.5833 21.9275 15.2686 21.9275H16.7314C17.4167 21.9275 17.9077 21.2775 17.7031 20.6375L16.7109 17.5175C16.5063 16.8275 15.5039 16.8275 15.2891 17.5175Z" fill="#ED9200"/>
<path d="M20.15 2H22.62C25.93 2 28.47 4.96 27.97 8.23L27.2 13.18C27.07 13.98 26.46 14.59 25.7 14.74L25.71 14.42V13.84C25.7 13.55 25.67 13.26 25.62 12.97C25.31 11.77 24.22 10.89 22.92 10.89H15.47L20.15 2Z" fill="#E6E6E6"/>
<path d="M16.1 2H9.57003C6.26003 2 3.72003 4.96 4.23003 8.23L5.00003 13.18C5.12003 13.97 5.73003 14.59 6.50003 14.74L6.49003 14.42V13.84C6.50003 13.54 6.53003 13.25 6.58003 12.97C6.90003 11.77 7.99003 10.89 9.28003 10.89H15.47C17.5 10.89 19.29 9.54 19.85 7.59L21.09 3.27C21.28 2.63 20.8 2 20.15 2H16.1Z" fill="#F4F4F4"/>
<path d="M19.3204 3.48541C19.169 4.12825 18.9781 4.7131 18.7495 5.21452C18.3087 6.1808 17.7118 6.90414 16.91 7.46023C15.53 8.42023 13.55 8.87022 10.67 8.87022C7.97778 8.87022 6.44508 9.67533 5.59144 10.4664L5.56436 10.4917C5.54395 10.511 5.52394 10.5302 5.50433 10.5494C5.4232 10.6287 5.34877 10.7076 5.28055 10.7853C5.02533 11.0758 4.85701 11.3487 4.75 11.5602L4.53 10.1502C4.64 10.0202 4.76 9.89023 4.9 9.78023C6.56 8.23023 8.95 7.90023 10.67 7.90023C13.4501 7.90023 15.2084 7.46892 16.3564 6.66443C16.5159 6.55261 16.6647 6.43279 16.8017 6.30671C17.2584 5.88653 17.5965 5.38805 17.8569 4.81706L17.86 4.81023L17.8264 4.82871C17.4159 5.05303 16.9093 5.26094 16.2932 5.40368C15.4219 5.60553 14.3314 5.6771 12.9827 5.48063C12.6236 5.43129 12.2599 5.37142 11.9042 5.31276C11.7555 5.28823 11.6073 5.26379 11.46 5.24023C9.39614 4.90003 7.48624 4.58839 5.91251 4.95354C5.80404 4.97871 5.69718 5.00709 5.59196 5.0389C5.20455 5.15602 4.83958 5.31959 4.5 5.54023C4.69 5.01023 4.97 4.52023 5.31 4.08023C7.17251 3.53243 9.40207 3.89728 11.5936 4.2559L11.6215 4.26047C11.7516 4.28172 11.8832 4.30367 12.0155 4.32576C12.3794 4.38649 12.758 4.44946 13.1229 4.50065C15.2106 4.80205 16.5607 4.39856 17.3765 3.93995C17.4283 3.91085 17.4779 3.88152 17.5254 3.85213C18.1666 3.45573 18.4255 3.04914 18.43 3.04023C18.56 2.83023 18.82 2.75023 19.04 2.84023C19.0955 2.86195 19.1446 2.8924 19.1865 2.92935C19.318 3.04548 19.3779 3.22573 19.34 3.40023L19.3204 3.48541Z" fill="#D3D3D3"/>
<path d="M21.4476 8.80114C23.3957 8.83839 25.2097 9.66477 26.5134 11.0327C26.618 11.1425 26.7194 11.2558 26.8173 11.3725C27.0126 11.6052 27.194 11.8514 27.3599 12.1098L27.5699 10.7398C26.0705 8.95622 23.8508 7.8641 21.4567 7.82114C21.4079 7.82026 21.3589 7.81982 21.3099 7.81982C21.0399 7.81982 20.8199 8.03982 20.8199 8.30982C20.8199 8.57982 21.0399 8.79982 21.3099 8.79982C21.3559 8.79982 21.4018 8.80026 21.4476 8.80114Z" fill="#D3D3D3"/>
<path d="M26.9654 6.6558C27.0532 6.72719 27.1394 6.80066 27.2239 6.87618C27.5097 7.13151 27.7761 7.41018 28.02 7.71006C28.05 7.17006 28 6.64006 27.8799 6.14006C26.4453 4.86153 24.5724 4.09736 22.5868 4.06139C22.5379 4.0605 22.489 4.06006 22.44 4.06006C22.17 4.06006 21.95 4.28006 21.95 4.55006C21.95 4.82006 22.17 5.04006 22.44 5.04006C22.4859 5.04006 22.5317 5.0405 22.5775 5.04139C24.2041 5.07283 25.7412 5.66058 26.9654 6.6558Z" fill="#D3D3D3"/>
</svg>

<svg xmlns="http://www.w3.org/2000/svg" width="32" height="32" fill="none"><path fill="#FDBB11" d="M10 18a3 3 0 1 1-6 0 3 3 0 0 1 6 0ZM28 18a3 3 0 1 1-6 0 3 3 0 0 1 6 0Z"/><path fill="#FFC83D" d="M18.068 4h-4.145c-4.654 0-8.15 3.925-7.62 8.798l.7 10.795C7.481 27.266 10.587 30 14.242 30H17.758c3.666 0 6.762-2.734 7.251-6.407l.67-10.795C26.306 8.147 22.721 4 18.067 4Z"/><path fill="#D37034" d="m22.533 14.456.302-.392a.5.5 0 0 1-.609.793l-.005-.003-.031-.022a3.903 3.903 0 0 0-.706-.363 4.193 4.193 0 0 0-2.026-.262.5.5 0 1 1-.116-.993 5.194 5.194 0 0 1 3.217.668 3.591 3.591 0 0 1 .25.163l.017.012.005.004.002.002h.002l-.302.393ZM9.325 14.064a.5.5 0 0 0 .609.793l.005-.003.031-.022a3.898 3.898 0 0 1 .706-.363 4.193 4.193 0 0 1 2.026-.262.5.5 0 1 0 .117-.993 5.194 5.194 0 0 0-3.218.668 3.591 3.591 0 0 0-.25.163l-.017.012-.005.004-.002.002-.002.001Z"/><path fill="#fff" d="M9.04 17.41a2.638 2.638 0 0 1 2.55-1.99c1.28 0 2.34.92 2.58 2.12.05.27-.16.51-.43.51H9.55c-.34 0-.59-.31-.51-.64ZM23.14 17.41a2.638 2.638 0 0 0-2.55-1.99c-1.28 0-2.34.92-2.58 2.12-.05.27.16.51.43.51h4.19c.34 0 .59-.31.51-.64Z"/><path fill="#7D4533" d="M10.3 17.61c0-.93.75-1.68 1.68-1.68a1.677 1.677 0 0 1 1.62 2.13h-3.24c-.04-.15-.06-.3-.06-.45ZM21.88 17.61c0-.93-.75-1.68-1.68-1.68a1.677 1.677 0 0 0-1.62 2.13h3.24c.04-.15.06-.3.06-.45Z"/><path fill="#000" d="M11.98 16.65a.96.96 0 0 1 .85 1.41h-1.7a.96.96 0 0 1 .85-1.41ZM20.2 16.65a.96.96 0 0 0-.85 1.41h1.7a.96.96 0 0 0-.85-1.41Z"/><path fill="#fff" d="M11.7 16.95a.3.3 0 1 1-.6 0 .3.3 0 0 1 .6 0ZM19.98 16.95a.3.3 0 1 1-.6 0 .3.3 0 0 1 .6 0Z"/><path fill="#990839" d="M15.998 23.889c-.95 0-1.833-.224-2.583-.607-.257-.13-.522.16-.37.392a3.53 3.53 0 0 0 2.953 1.576 3.53 3.53 0 0 0 2.954-1.576c.161-.233-.114-.522-.37-.392a5.692 5.692 0 0 1-2.584.607Z"/><path fill="#ED9200" d="m15.29 17.517-.993 3.12c-.205.64.286 1.29.972 1.29h1.462c.686 0 1.177-.65.972-1.29l-.992-3.12c-.205-.69-1.207-.69-1.422 0Z"/><path fill="#E6E6E6" d="M20.15 2h2.47c3.31 0 5.85 2.96 5.35 6.23l-.77 4.95c-.13.8-.74 1.41-1.5 1.56l.01-.32v-.58c-.01-.29-.04-.58-.09-.87-.31-1.2-1.4-2.08-2.7-2.08h-7.45L20.15 2Z"/><path fill="#F4F4F4" d="M16.1 2H9.57C6.26 2 3.72 4.96 4.23 8.23L5 13.18c.12.79.73 1.41 1.5 1.56l-.01-.32v-.58c.01-.3.04-.59.09-.87a2.8 2.8 0 0 1 2.7-2.08h6.19c2.03 0 3.82-1.35 4.38-3.3l1.24-4.32A.986.986 0 0 0 20.15 2H16.1Z"/><path fill="#D3D3D3" d="M19.32 3.485a9.398 9.398 0 0 1-.57 1.73c-.441.966-1.038 1.69-1.84 2.245-1.38.96-3.36 1.41-6.24 1.41-2.692 0-4.225.805-5.079 1.596l-.027.026a4.792 4.792 0 0 0-.283.293c-.256.29-.424.564-.531.775l-.22-1.41c.11-.13.23-.26.37-.37C6.56 8.23 8.95 7.9 10.67 7.9c2.78 0 4.538-.431 5.686-1.236.16-.111.309-.231.446-.357.456-.42.794-.919 1.055-1.49l.003-.007-.034.019a6.01 6.01 0 0 1-1.533.575c-.871.202-1.962.273-3.31.077-.36-.05-.723-.11-1.079-.168a92.282 92.282 0 0 0-.444-.073c-2.064-.34-3.974-.652-5.547-.286a5.059 5.059 0 0 0-.321.085c-.387.117-.752.28-1.092.501.19-.53.47-1.02.81-1.46 1.863-.548 4.092-.183 6.284.176l.027.004.394.066c.364.06.743.123 1.108.175 2.088.301 3.438-.102 4.254-.561.051-.03.1-.058.148-.088.642-.396.9-.803.905-.812a.497.497 0 0 1 .91.36l-.02.085ZM21.448 8.801a7.19 7.19 0 0 1 5.912 3.309l.21-1.37a8.186 8.186 0 0 0-6.26-2.92.49.49 0 0 0 0 .98l.138.001ZM26.965 6.656A7.28 7.28 0 0 1 28.02 7.71c.03-.54-.02-1.07-.14-1.57a8.192 8.192 0 0 0-5.44-2.08.49.49 0 0 0 0 .98l.137.001a7.179 7.179 0 0 1 4.388 1.615Z"/></svg>
